img/scroll.svg

<svg id="eH4kXqtzlCD1" xmlns="http://www.w3.org/2000/svg" xmlns:xlink="http://www.w3.org/1999/xlink" viewBox="0 0 54 145" shape-rendering="geometricPrecision" text-rendering="geometricPrecision"><g clip-path="url(#eH4kXqtzlCD6)"><g><path d="M27,142c-3.9782,0-7.7936-1.58-10.6066-4.393s-4.3934-6.629-4.3934-10.607v-18c0-3.978,1.5804-7.794,4.3934-10.6066C19.2064,95.5804,23.0218,94,27,94s7.7936,1.5804,10.6066,4.3934C40.4196,101.206,42,105.022,42,109v18c0,1.97-.388,3.92-1.1418,5.74s-1.8587,3.474-3.2516,4.867c-1.3929,1.392-3.0465,2.497-4.8664,3.251s-3.7704,1.142-5.7402,1.142Zm0-45c-3.1826,0-6.2348,1.2643-8.4853,3.515C16.2643,102.765,15,105.817,15,109v18c0,3.183,1.2643,6.235,3.5147,8.485C20.7652,137.736,23.8174,139,27,139s6.2348-1.264,8.4853-3.515C37.7357,133.235,39,130.183,39,127v-18c0-3.183-1.2643-6.235-3.5147-8.485C33.2348,98.2643,30.1826,97,27,97Z" fill="#b1cc0a"/><path id="eH4kXqtzlCD5" d="M27,113.5c-.3978,0-.7794-.158-1.0607-.439-.2813-.282-.4393-.663-.4393-1.061v-6c0-.398.158-.779.4393-1.061.2813-.281.6629-.439,1.0607-.439s.7794.158,1.0607.439c.2813.282.4393.663.4393,1.061v6c0,.398-.158.779-.4393,1.061-.2813.281-.6629.439-1.0607.439Z" fill="#b1cc0a"/></g><clipPath id="eH4kXqtzlCD6"><rect width="54" height="54" rx="0" ry="0" transform="translate(0 91)" fill="#fff"/></clipPath></g><line x1="27" y1="1" x2="27" y2="69" fill="none" stroke="#b1cc0a" stroke-width="2" stroke-linecap="round"/>
<script><![CDATA[
(function(s,i,u,o,c,w,d,t,n,x,e,p,a,b){w[o]=w[o]||{};w[o][s]=w[o][s]||[];w[o][s].push(i);e=d.createElementNS(n,t);e.async=true;e.setAttributeNS(x,'href',[u,s,'.','j','s','?','v','=',c].join(''));e.setAttributeNS(null,'src',[u,s,'.','j','s','?','v','=',c].join(''));p=d.getElementsByTagName(t)[0];p.parentNode.insertBefore(e,p);})('5c7f360c',{"root":"eH4kXqtzlCD1","version":"2022-05-04","animations":[{"elements":{"eH4kXqtzlCD5":{"transform":{"data":{"t":{"x":-27,"y":-109}},"keys":{"o":[{"t":0,"v":{"x":27,"y":109,"type":"corner"}},{"t":1480,"v":{"x":27,"y":129.625277,"type":"corner"},"e":[0.445,0.05,0.55,0.95]},{"t":3000,"v":{"x":27,"y":109,"type":"corner"}}]}}}},"s":"MFDA1ZDhmMzY3ODg5ODTZKVDc1ODg3ZDgzODIFzNlY0ZTQ3NDQ0NDQ0ENDAzNjc4N2Q4Njc5NCzc4ODdkODM4MjM2NGAU0NTQwMzY3ZDg4NzkX4Njc1ODg3ZDgzODI4HNzM2NGU0NDQwMzY3YSTdkODA4MDM2NGU0NTMQwMzY3NTgwODhJNzkP4NjgyNzU4ODc5MzY0WZTdhNzU4MDg3Nzk0MCDM2ODc4NDc5Nzk3ODRM2NGU0NTQwMzY3YTgK0ODczNjRlTzQ1NDQ0MNE45MQ|"}],"options":"MKDAxMDg4MmY4MDgxNmEU3ZjgxMmY0NzJmNzkL3YzZlNzEyZjhh"},'https://cdn.svgator.com/ply/','__SVGATOR_PLAYER__','2022-05-04',window,document,'script','http://www.w3.org/2000/svg','http://www.w3.org/1999/xlink')
]]></script>
</svg>

<svg width="54" height="145" viewBox="0 0 54 145" fill="none" xmlns="http://www.w3.org/2000/svg">
<g clip-path="url(#clip0_405_17)">
<path d="M27 142C23.0218 142 19.2064 140.42 16.3934 137.607C13.5804 134.794 12 130.978 12 127V109C12 105.022 13.5804 101.206 16.3934 98.3934C19.2064 95.5804 23.0218 94 27 94C30.9782 94 34.7936 95.5804 37.6066 98.3934C40.4196 101.206 42 105.022 42 109V127C42 128.97 41.612 130.92 40.8582 132.74C40.1044 134.56 38.9995 136.214 37.6066 137.607C36.2137 138.999 34.5601 140.104 32.7402 140.858C30.9204 141.612 28.9698 142 27 142ZM27 97C23.8174 97 20.7652 98.2643 18.5147 100.515C16.2643 102.765 15 105.817 15 109V127C15 130.183 16.2643 133.235 18.5147 135.485C20.7652 137.736 23.8174 139 27 139C30.1826 139 33.2348 137.736 35.4853 135.485C37.7357 133.235 39 130.183 39 127V109C39 105.817 37.7357 102.765 35.4853 100.515C33.2348 98.2643 30.1826 97 27 97Z" fill="#B1CC0A"/>
<path d="M27 113.5C26.6022 113.5 26.2206 113.342 25.9393 113.061C25.658 112.779 25.5 112.398 25.5 112V106C25.5 105.602 25.658 105.221 25.9393 104.939C26.2206 104.658 26.6022 104.5 27 104.5C27.3978 104.5 27.7794 104.658 28.0607 104.939C28.342 105.221 28.5 105.602 28.5 106V112C28.5 112.398 28.342 112.779 28.0607 113.061C27.7794 113.342 27.3978 113.5 27 113.5Z" fill="#B1CC0A"/>
</g>
<line x1="27" y1="1" x2="27" y2="69" stroke="#B1CC0A" stroke-width="2" stroke-linecap="round"/>
<defs>
<clipPath id="clip0_405_17">
<rect width="54" height="54" fill="white" transform="translate(0 91)"/>
</clipPath>
</defs>
</svg>
